public/section5/AwanKecil2.svg

<svg width="394" height="153" viewBox="0 0 394 153" fill="none" xmlns="http://www.w3.org/2000/svg">
<g opacity="0.5">
<mask id="path-1-inside-1_24_6379" fill="white">
<path d="M12.4591 75.3681C8.50589 73.7358 4.19656 74.1454 0 74.638C1.47208 74.0504 2.89072 73.3856 4.27966 72.7386C4.89105 72.4537 5.50241 72.1688 6.11377 71.8898C11.5331 69.4324 16.8574 67.3846 22.3302 69.2781C28.7467 71.498 34.4093 76.8105 38.6237 81.1851C38.778 81.3454 38.8967 81.5353 39.0273 81.7194C39.2766 82.0755 39.5853 82.5207 40.0245 82.9243C47.9487 90.1837 63.7733 97.9357 74.8612 89.5545C78.4642 86.83 81.0522 83.1024 83.1891 79.8199C89.659 69.9013 97.3101 61.2471 109.389 65.0341C109.674 65.1231 109.971 65.2655 110.315 65.4317C110.713 65.6217 111.111 65.8116 111.532 65.96C111.704 66.0194 111.924 66.1084 112.179 66.2093C113.716 66.8207 114.898 67.2421 115.901 67.0997C116.577 67.0047 117.153 66.5536 117.408 65.9185C118.228 63.9063 116.441 62.3096 115.485 61.4548C115.331 61.3183 115.188 61.1936 115.094 61.0927C114.506 60.4517 113.859 59.9531 113.23 59.4664C112.506 58.9025 111.817 58.3682 111.419 57.7509C107.193 51.1623 107.086 44.6567 111.117 38.9466C117.313 30.1499 132.295 24.9739 143.828 27.645C149.438 28.939 156.465 32.5835 158.074 42.5674L159.255 49.9039C159.421 50.9486 160.395 51.6668 161.451 51.5006C162.496 51.3404 163.214 50.361 163.06 49.3163C162.128 43.0303 161.072 35.9075 163.185 29.6453C164.532 25.6565 167.274 21.7033 171.584 17.5661C187.064 2.68531 210.504 -3.45815 231.291 1.91961C241.067 4.44822 249.069 9.65386 256.476 18.2963C261.243 23.858 266.983 31.3667 269.072 40.0922C272.099 52.7709 266.822 67.1412 255.936 75.8549C245.75 84.0105 231.362 87.0437 217.455 83.969C213.496 83.0964 209.922 81.7728 206.8 80.087C205.055 78.5853 203.12 77.2082 200.971 75.9973C200.538 75.5996 200.105 75.2019 199.701 74.7864C190.839 65.5089 192.139 50.729 198.419 42.3596C203.975 34.9697 212.196 33.3551 220.987 37.9316C223.723 39.3561 226.934 42.4131 227.504 45.7489C227.801 47.494 227.308 49.0254 225.996 50.4322C225.272 51.2098 225.314 52.4266 226.091 53.1508C226.869 53.8749 228.086 53.8334 228.81 53.0558C230.941 50.7765 231.802 48.0223 231.297 45.096C230.496 40.4424 226.436 36.4239 222.761 34.5126C212.285 29.0636 202.034 31.1292 195.338 40.0447C189.094 48.3606 187.177 62.2027 193.38 72.7386C187.408 70.8926 180.345 70.1981 172.13 71.2547C163.636 72.3409 152.31 77.4041 148.328 88.0824C144.054 99.5383 150.963 111.546 159.635 117.031C165.351 120.646 173.394 121.495 179.193 119.108C183.615 117.286 186.512 113.849 187.58 109.178C189.237 101.913 184.927 94.4336 178.16 92.8488C174.427 91.9763 170.925 92.5105 168.788 94.2793C167.648 95.2231 166.325 96.986 166.461 100.037C166.544 101.925 167.631 103.8 169.298 104.922C170.83 105.955 172.628 106.228 174.231 105.658C175.234 105.302 175.762 104.204 175.406 103.201C175.05 102.198 173.952 101.675 172.949 102.025C172.32 102.245 171.691 101.889 171.447 101.723C170.782 101.272 170.331 100.541 170.302 99.8589C170.248 98.6599 170.557 97.8051 171.239 97.2353C172.415 96.2559 174.783 96.0007 177.27 96.5883C182.505 97.817 184.88 103.64 183.811 108.311C183.022 111.76 180.968 114.194 177.709 115.541C172.996 117.488 166.402 116.758 161.677 113.772C154.287 109.101 148.357 98.9745 151.919 89.4239C155.302 80.3541 165.173 76.0211 172.605 75.0713C183.491 73.6765 192.157 75.5818 198.728 79.1907C200.425 80.6865 202.36 82.0102 204.468 83.1914C208.225 86.4738 210.926 90.3677 212.588 94.3031C217.764 106.501 214.6 123.222 205.993 135.034C205.827 135.087 205.661 135.159 205.506 135.265C204.99 135.616 204.705 136.168 204.675 136.743C202.562 139.355 200.17 141.688 197.523 143.611C186.067 151.933 167.185 153.868 155.427 147.92C147.188 143.754 140.326 136.168 135.94 126.427C138.059 125.774 139.976 124.86 141.632 123.703C145.74 120.824 148.304 116.236 148.316 111.736C148.316 110.674 147.461 109.807 146.398 109.807H146.393C145.33 109.807 144.469 110.668 144.469 111.724C144.458 114.995 142.522 118.372 139.424 120.551C136.688 122.474 132.99 123.572 128.74 123.738C119.611 124.1 111.152 120.248 102.082 111.653C101.311 110.923 100.094 110.953 99.3639 111.724C98.6338 112.496 98.6635 113.713 99.4351 114.449C108.772 123.299 118.014 127.614 127.642 127.614C128.057 127.614 128.473 127.608 128.888 127.591C129.945 127.549 130.96 127.448 131.957 127.306C133.352 133.663 126.923 139.83 122.62 142.614C115.539 147.196 105.739 147.968 97.0371 144.62C89.0001 141.528 82.0375 134.393 77.3958 124.522C80.3221 121.222 81.5389 116.805 81.0818 112.983C80.4942 108.05 76.9388 102.714 68.7178 102.53C67.7146 102.506 64.1888 102.661 61.4584 105.587C59.2087 107.997 58.2769 111.445 58.6864 115.832C58.7873 116.888 59.743 117.666 60.7817 117.571C61.8383 117.47 62.6218 116.532 62.5209 115.476C62.2182 112.229 62.8118 109.789 64.2719 108.216C65.5778 106.821 67.4 106.358 68.6287 106.382C75.6804 106.543 77.0159 111.374 77.2592 113.44C77.8053 118.016 74.9562 123.649 69.252 125.163C61.8264 127.133 50.0203 124.504 44.9452 117.583C43.7521 115.957 43.954 114.663 44.2626 112.698C44.5119 111.113 44.7909 109.314 44.2448 107.207C42.9093 102.055 38.2557 102.31 35.4837 102.465C34.5756 102.518 33.7386 102.512 32.7711 102.572C32.0885 102.613 31.3109 102.661 30.8895 102.53C27.0609 101.39 26.1053 97.6864 25.0843 92.1662C24.8172 90.7179 24.5679 89.3527 24.2059 88.0587C22.5854 82.2001 18.6263 77.9383 12.4413 75.386L12.4591 75.3681Z"/>
</mask>
<path d="M12.4591 75.3681C8.50589 73.7358 4.19656 74.1454 0 74.638C1.47208 74.0504 2.89072 73.3856 4.27966 72.7386C4.89105 72.4537 5.50241 72.1688 6.11377 71.8898C11.5331 69.4324 16.8574 67.3846 22.3302 69.2781C28.7467 71.498 34.4093 76.8105 38.6237 81.1851C38.778 81.3454 38.8967 81.5353 39.0273 81.7194C39.2766 82.0755 39.5853 82.5207 40.0245 82.9243C47.9487 90.1837 63.7733 97.9357 74.8612 89.5545C78.4642 86.83 81.0522 83.1024 83.1891 79.8199C89.659 69.9013 97.3101 61.2471 109.389 65.0341C109.674 65.1231 109.971 65.2655 110.315 65.4317C110.713 65.6217 111.111 65.8116 111.532 65.96C111.704 66.0194 111.924 66.1084 112.179 66.2093C113.716 66.8207 114.898 67.2421 115.901 67.0997C116.577 67.0047 117.153 66.5536 117.408 65.9185C118.228 63.9063 116.441 62.3096 115.485 61.4548C115.331 61.3183 115.188 61.1936 115.094 61.0927C114.506 60.4517 113.859 59.9531 113.23 59.4664C112.506 58.9025 111.817 58.3682 111.419 57.7509C107.193 51.1623 107.086 44.6567 111.117 38.9466C117.313 30.1499 132.295 24.9739 143.828 27.645C149.438 28.939 156.465 32.5835 158.074 42.5674L159.255 49.9039C159.421 50.9486 160.395 51.6668 161.451 51.5006C162.496 51.3404 163.214 50.361 163.06 49.3163C162.128 43.0303 161.072 35.9075 163.185 29.6453C164.532 25.6565 167.274 21.7033 171.584 17.5661C187.064 2.68531 210.504 -3.45815 231.291 1.91961C241.067 4.44822 249.069 9.65386 256.476 18.2963C261.243 23.858 266.983 31.3667 269.072 40.0922C272.099 52.7709 266.822 67.1412 255.936 75.8549C245.75 84.0105 231.362 87.0437 217.455 83.969C213.496 83.0964 209.922 81.7728 206.8 80.087C205.055 78.5853 203.12 77.2082 200.971 75.9973C200.538 75.5996 200.105 75.2019 199.701 74.7864C190.839 65.5089 192.139 50.729 198.419 42.3596C203.975 34.9697 212.196 33.3551 220.987 37.9316C223.723 39.3561 226.934 42.4131 227.504 45.7489C227.801 47.494 227.308 49.0254 225.996 50.4322C225.272 51.2098 225.314 52.4266 226.091 53.1508C226.869 53.8749 228.086 53.8334 228.81 53.0558C230.941 50.7765 231.802 48.0223 231.297 45.096C230.496 40.4424 226.436 36.4239 222.761 34.5126C212.285 29.0636 202.034 31.1292 195.338 40.0447C189.094 48.3606 187.177 62.2027 193.38 72.7386C187.408 70.8926 180.345 70.1981 172.13 71.2547C163.636 72.3409 152.31 77.4041 148.328 88.0824C144.054 99.5383 150.963 111.546 159.635 117.031C165.351 120.646 173.394 121.495 179.193 119.108C183.615 117.286 186.512 113.849 187.58 109.178C189.237 101.913 184.927 94.4336 178.16 92.8488C174.427 91.9763 170.925 92.5105 168.788 94.2793C167.648 95.2231 166.325 96.986 166.461 100.037C166.544 101.925 167.631 103.8 169.298 104.922C170.83 105.955 172.628 106.228 174.231 105.658C175.234 105.302 175.762 104.204 175.406 103.201C175.05 102.198 173.952 101.675 172.949 102.025C172.32 102.245 171.691 101.889 171.447 101.723C170.782 101.272 170.331 100.541 170.302 99.8589C170.248 98.6599 170.557 97.8051 171.239 97.2353C172.415 96.2559 174.783 96.0007 177.27 96.5883C182.505 97.817 184.88 103.64 183.811 108.311C183.022 111.76 180.968 114.194 177.709 115.541C172.996 117.488 166.402 116.758 161.677 113.772C154.287 109.101 148.357 98.9745 151.919 89.4239C155.302 80.3541 165.173 76.0211 172.605 75.0713C183.491 73.6765 192.157 75.5818 198.728 79.1907C200.425 80.6865 202.36 82.0102 204.468 83.1914C208.225 86.4738 210.926 90.3677 212.588 94.3031C217.764 106.501 214.6 123.222 205.993 135.034C205.827 135.087 205.661 135.159 205.506 135.265C204.99 135.616 204.705 136.168 204.675 136.743C202.562 139.355 200.17 141.688 197.523 143.611C186.067 151.933 167.185 153.868 155.427 147.92C147.188 143.754 140.326 136.168 135.94 126.427C138.059 125.774 139.976 124.86 141.632 123.703C145.74 120.824 148.304 116.236 148.316 111.736C148.316 110.674 147.461 109.807 146.398 109.807H146.393C145.33 109.807 144.469 110.668 144.469 111.724C144.458 114.995 142.522 118.372 139.424 120.551C136.688 122.474 132.99 123.572 128.74 123.738C119.611 124.1 111.152 120.248 102.082 111.653C101.311 110.923 100.094 110.953 99.3639 111.724C98.6338 112.496 98.6635 113.713 99.4351 114.449C108.772 123.299 118.014 127.614 127.642 127.614C128.057 127.614 128.473 127.608 128.888 127.591C129.945 127.549 130.96 127.448 131.957 127.306C133.352 133.663 126.923 139.83 122.62 142.614C115.539 147.196 105.739 147.968 97.0371 144.62C89.0001 141.528 82.0375 134.393 77.3958 124.522C80.3221 121.222 81.5389 116.805 81.0818 112.983C80.4942 108.05 76.9388 102.714 68.7178 102.53C67.7146 102.506 64.1888 102.661 61.4584 105.587C59.2087 107.997 58.2769 111.445 58.6864 115.832C58.7873 116.888 59.743 117.666 60.7817 117.571C61.8383 117.47 62.6218 116.532 62.5209 115.476C62.2182 112.229 62.8118 109.789 64.2719 108.216C65.5778 106.821 67.4 106.358 68.6287 106.382C75.6804 106.543 77.0159 111.374 77.2592 113.44C77.8053 118.016 74.9562 123.649 69.252 125.163C61.8264 127.133 50.0203 124.504 44.9452 117.583C43.7521 115.957 43.954 114.663 44.2626 112.698C44.5119 111.113 44.7909 109.314 44.2448 107.207C42.9093 102.055 38.2557 102.31 35.4837 102.465C34.5756 102.518 33.7386 102.512 32.7711 102.572C32.0885 102.613 31.3109 102.661 30.8895 102.53C27.0609 101.39 26.1053 97.6864 25.0843 92.1662C24.8172 90.7179 24.5679 89.3527 24.2059 88.0587C22.5854 82.2001 18.6263 77.9383 12.4413 75.386L12.4591 75.3681Z" fill="url(#paint0_linear_24_6379)" fill-opacity="0.48" stroke="url(#paint1_linear_24_6379)" stroke-width="5.93569" mask="url(#path-1-inside-1_24_6379)"/>
<path d="M272.433 62.0146C269.759 68.8921 265.269 75.2061 259.268 80.0049V80.0059C247.803 89.1862 231.736 92.5757 216.304 89.1641L216.3 89.1631C216.202 89.1411 216.105 89.1153 216.007 89.0928C216.57 90.1204 217.073 91.1586 217.516 92.1992C223.379 106.017 220.229 124.012 211.088 137.143C214.081 140.811 217.896 143.795 221.983 145.242C226.33 146.781 230.999 146.6 235.495 143.627H235.494C236.665 142.851 237.832 141.984 238.782 141.202C239.476 140.631 239.994 140.152 240.318 139.813C240.361 138.924 240.748 138.05 241.473 137.415L241.474 137.414L241.609 137.302C242.976 136.223 244.949 136.344 246.167 137.603L246.287 137.732C246.952 138.488 247.592 139.235 248.21 139.967C251.631 143.982 254.388 147.19 259.072 149.232L259.532 149.427C264.42 151.426 270.24 152.026 275.466 151.073H275.465C283.596 149.588 287.999 145.758 294.472 140.075L294.474 140.073C295.278 139.37 296.114 138.635 296.98 137.889H296.979C297.438 137.492 297.913 137.058 298.403 136.594C294.777 138.252 291 139.607 287.065 140.184V140.183C285.063 140.478 283.068 140.62 281.098 140.62C272.4 140.62 264.104 137.828 258.044 132.645L257.465 132.136C256.064 130.871 255.963 128.716 257.221 127.321C258.446 125.964 260.507 125.826 261.903 126.963L262.036 127.077C267.881 132.348 276.847 134.789 286.083 133.441C291.991 132.579 297.899 129.377 303.905 126.099C311.553 121.923 319.859 117.365 329.015 117.839C330.493 117.841 332.01 117.975 333.582 118.275H333.584C334.098 118.375 334.56 118.586 334.952 118.874C335.899 119.154 336.874 119.477 337.875 119.905C341.837 121.591 345.411 123.934 348.75 126.111L348.752 126.112C355.092 130.257 360.622 133.807 367.742 133.405C371.62 133.186 374.367 131.925 376.581 129.848C378.846 127.721 380.636 124.664 382.421 120.696C383.172 119.025 384.278 116.557 385.914 114.262C386.786 113.038 387.834 111.831 389.088 110.803C388.633 110.788 388.15 110.789 387.63 110.805H387.629C386.757 110.831 385.942 111.142 384.665 111.654V111.653C384.157 111.857 383.591 112.087 383.006 112.286C381.647 112.755 380.441 113.293 379.209 113.837V113.836C376.035 115.247 372.76 116.714 367.721 116.321C364.904 116.102 361.664 115.766 358.695 114.274C353.547 111.689 350.258 107.419 347.426 103.306L346.237 101.559C343.727 97.8545 341.519 94.6273 338.442 92.3594C331.33 87.1248 321.145 86.8199 313.899 91.4668C314.048 93.5027 313.995 95.5577 313.687 97.5996C312.765 103.743 309.529 109.492 304.765 113.479L304.299 113.859C299.734 117.496 292.9 119.382 286.333 119.382C282.456 119.382 278.573 118.728 275.215 117.312V117.313C269.04 114.713 265.181 109.787 264.54 103.452V103.451C263.676 94.8937 269.527 89.0871 275.389 87.1221L275.957 86.9443L276.611 86.7666C283.354 85.0882 289.753 88.026 292.946 94.3213V94.3223C293.797 96.0037 293.124 98.0536 291.444 98.9043V98.9033C289.766 99.7559 287.713 99.08 286.863 97.4014L286.862 97.4023C285.758 95.2239 284.25 94.0697 282.703 93.5322C281.22 93.0173 279.61 93.0386 278.159 93.4111L277.871 93.4902C274.276 94.542 270.83 97.9188 271.321 102.768C271.705 106.562 273.808 109.325 277.857 111.028C281.166 112.421 285.409 112.86 289.537 112.388C293.543 111.929 297.263 110.632 299.804 108.71L300.046 108.522C303.609 105.684 306.079 101.505 306.865 97.0176L306.935 96.583C307.692 91.5209 306.495 86.1578 304.143 81.2822C301.792 76.4083 298.337 72.1267 294.738 69.251C289.331 64.9314 281.481 62.359 272.433 62.0146Z" fill="url(#paint2_linear_24_6379)" fill-opacity="0.48" stroke="url(#paint3_linear_24_6379)" stroke-width="2.96785"/>
</g>
<defs>
<linearGradient id="paint0_linear_24_6379" x1="269.917" y1="75.6855" x2="0" y2="75.6855" gradientUnits="userSpaceOnUse">
<stop stop-color="#FCF0D6"/>
<stop offset="1" stop-color="#FFC446"/>
</linearGradient>
<linearGradient id="paint1_linear_24_6379" x1="269.917" y1="75.6855" x2="0" y2="75.6855" gradientUnits="userSpaceOnUse">
<stop stop-color="#FCF0D6"/>
<stop offset="1" stop-color="#FFC446"/>
</linearGradient>
<linearGradient id="paint2_linear_24_6379" x1="393.39" y1="106.75" x2="209.235" y2="106.75" gradientUnits="userSpaceOnUse">
<stop stop-color="#FCF0D6"/>
<stop offset="1" stop-color="#FFC446"/>
</linearGradient>
<linearGradient id="paint3_linear_24_6379" x1="393.39" y1="106.75" x2="209.235" y2="106.75" gradientUnits="userSpaceOnUse">
<stop stop-color="#FCF0D6"/>
<stop offset="1" stop-color="#FFC446"/>
</linearGradient>
</defs>
</svg>

<svg xmlns="http://www.w3.org/2000/svg" width="394" height="153" fill="none" viewBox="0 0 394 153"><g opacity=".5"><mask id="c" fill="#fff"><path d="M12.46 75.37C8.51 73.74 4.2 74.15 0 74.64c1.47-.59 2.89-1.25 4.28-1.9.61-.29 1.22-.57 1.83-.85 5.42-2.46 10.75-4.51 16.22-2.61 6.42 2.22 12.08 7.53 16.29 11.91.16.16.28.35.41.53.25.36.56.8.99 1.2 7.93 7.26 23.75 15.02 34.84 6.63 3.6-2.72 6.19-6.45 8.33-9.73 6.47-9.92 14.12-18.57 26.2-14.79.28.09.58.24.92.4.4.19.8.38 1.22.53.17.06.39.15.65.25 1.54.61 2.72 1.03 3.72.89.68-.1 1.25-.55 1.51-1.18.82-2.01-.97-3.61-1.93-4.47-.15-.13-.29-.26-.39-.36-.58-.64-1.23-1.14-1.86-1.62-.72-.57-1.41-1.1-1.81-1.72-4.23-6.59-4.33-13.09-.3-18.8 6.19-8.8 21.17-13.98 32.71-11.31 5.61 1.3 12.64 4.94 14.24 14.93l1.18 7.33a1.92 1.92 0 0 0 2.2 1.6 1.924 1.924 0 0 0 1.61-2.18c-.93-6.29-1.99-13.41.13-19.67 1.34-3.99 4.08-7.95 8.39-12.08C187.06 2.69 210.5-3.46 231.29 1.92c9.78 2.53 17.78 7.73 25.19 16.38 4.76 5.56 10.5 13.07 12.59 21.79 3.03 12.68-2.25 27.05-13.13 35.76-10.19 8.16-24.58 11.19-38.48 8.12-3.96-.87-7.54-2.2-10.66-3.88-1.74-1.5-3.68-2.88-5.83-4.09-.43-.4-.87-.8-1.27-1.21-8.86-9.28-7.56-24.06-1.28-32.43 5.55-7.39 13.78-9 22.57-4.43 2.73 1.43 5.94 4.48 6.51 7.82.3 1.74-.19 3.28-1.5 4.68-.73.78-.69 2 .09 2.72s2 .68 2.72-.09c2.13-2.28 2.99-5.04 2.49-7.96-.8-4.66-4.86-8.68-8.54-10.59-10.48-5.45-20.73-3.38-27.42 5.53-6.25 8.32-8.16 22.16-1.96 32.7-5.97-1.85-13.04-2.54-21.25-1.49-8.49 1.09-19.82 6.15-23.8 16.83-4.28 11.46 2.63 23.47 11.3 28.95 5.72 3.62 13.76 4.47 19.56 2.08 4.43-1.82 7.32-5.26 8.39-9.93 1.66-7.27-2.65-14.75-9.42-16.33-3.73-.87-7.23-.34-9.37 1.43-1.14.94-2.47 2.71-2.33 5.76.08 1.88 1.17 3.76 2.84 4.88 1.53 1.03 3.33 1.31 4.93.74 1-.36 1.53-1.46 1.18-2.46-.36-1-1.46-1.53-2.46-1.17-.63.22-1.26-.14-1.5-.31-.67-.45-1.12-1.18-1.15-1.86-.05-1.2.26-2.05.94-2.62 1.17-.98 3.54-1.24 6.03-.65 5.23 1.23 7.61 7.05 6.54 11.72-.79 3.45-2.84 5.88-6.1 7.23-4.71 1.95-11.31 1.22-16.03-1.77-7.39-4.67-13.32-14.8-9.76-24.35 3.38-9.07 13.25-13.4 20.68-14.35 10.89-1.39 19.56.51 26.13 4.12 1.7 1.5 3.63 2.82 5.74 4 3.75 3.28 6.46 7.18 8.12 11.11 5.17 12.2 2.01 28.92-6.6 40.73-.16.06-.33.13-.48.23-.52.36-.8.91-.83 1.48-2.12 2.61-4.51 4.95-7.16 6.87-11.45 8.32-30.33 10.26-42.09 4.31-8.24-4.17-15.1-11.75-19.49-21.49 2.12-.66 4.04-1.57 5.69-2.73 4.11-2.88 6.67-7.46 6.69-11.96 0-1.07-.86-1.93-1.92-1.93h-.01c-1.06 0-1.92.86-1.92 1.91-.01 3.28-1.95 6.65-5.05 8.83-2.73 1.92-6.43 3.02-10.68 3.19-9.13.36-17.59-3.49-26.66-12.09-.77-.73-1.99-.7-2.72.07-.73.78-.7 1.99.08 2.73 9.33 8.85 18.57 13.16 28.2 13.16.42 0 .83 0 1.25-.02 1.05-.04 2.07-.14 3.07-.28 1.39 6.35-5.04 12.52-9.34 15.3-7.08 4.59-16.88 5.36-25.58 2.01-8.04-3.09-15-10.23-19.64-20.1 2.92-3.3 4.14-7.71 3.68-11.54-.59-4.93-4.14-10.27-12.36-10.45-1.01-.02-4.53.13-7.26 3.06-2.25 2.41-3.18 5.85-2.77 10.24.1 1.06 1.05 1.84 2.09 1.74 1.06-.1 1.84-1.04 1.74-2.09-.3-3.25.29-5.69 1.75-7.26 1.31-1.4 3.13-1.86 4.36-1.84 7.05.16 8.39 4.99 8.63 7.06.55 4.58-2.3 10.21-8.01 11.72-7.42 1.97-19.23-.66-24.3-7.58-1.2-1.62-1-2.92-.69-4.88.25-1.59.53-3.39-.02-5.49-1.33-5.15-5.98-4.9-8.76-4.74-.9.05-1.74.04-2.71.1-.68.04-1.46.09-1.88-.04-3.83-1.14-4.78-4.84-5.81-10.36-.26-1.45-.51-2.82-.87-4.11-1.62-5.86-5.58-10.12-11.77-12.67z"/></mask><path fill="url(#a)" fill-opacity=".48" stroke="url(#b)" stroke-width="5.94" d="M12.46 75.37C8.51 73.74 4.2 74.15 0 74.64c1.47-.59 2.89-1.25 4.28-1.9.61-.29 1.22-.57 1.83-.85 5.42-2.46 10.75-4.51 16.22-2.61 6.42 2.22 12.08 7.53 16.29 11.91.16.16.28.35.41.53.25.36.56.8.99 1.2 7.93 7.26 23.75 15.02 34.84 6.63 3.6-2.72 6.19-6.45 8.33-9.73 6.47-9.92 14.12-18.57 26.2-14.79.28.09.58.24.92.4.4.19.8.38 1.22.53.17.06.39.15.65.25 1.54.61 2.72 1.03 3.72.89.68-.1 1.25-.55 1.51-1.18.82-2.01-.97-3.61-1.93-4.47-.15-.13-.29-.26-.39-.36-.58-.64-1.23-1.14-1.86-1.62-.72-.57-1.41-1.1-1.81-1.72-4.23-6.59-4.33-13.09-.3-18.8 6.19-8.8 21.17-13.98 32.71-11.31 5.61 1.3 12.64 4.94 14.24 14.93l1.18 7.33a1.92 1.92 0 0 0 2.2 1.6 1.924 1.924 0 0 0 1.61-2.18c-.93-6.29-1.99-13.41.13-19.67 1.34-3.99 4.08-7.95 8.39-12.08C187.06 2.69 210.5-3.46 231.29 1.92c9.78 2.53 17.78 7.73 25.19 16.38 4.76 5.56 10.5 13.07 12.59 21.79 3.03 12.68-2.25 27.05-13.13 35.76-10.19 8.16-24.58 11.19-38.48 8.12-3.96-.87-7.54-2.2-10.66-3.88-1.74-1.5-3.68-2.88-5.83-4.09-.43-.4-.87-.8-1.27-1.21-8.86-9.28-7.56-24.06-1.28-32.43 5.55-7.39 13.78-9 22.57-4.43 2.73 1.43 5.94 4.48 6.51 7.82.3 1.74-.19 3.28-1.5 4.68-.73.78-.69 2 .09 2.72s2 .68 2.72-.09c2.13-2.28 2.99-5.04 2.49-7.96-.8-4.66-4.86-8.68-8.54-10.59-10.48-5.45-20.73-3.38-27.42 5.53-6.25 8.32-8.16 22.16-1.96 32.7-5.97-1.85-13.04-2.54-21.25-1.49-8.49 1.09-19.82 6.15-23.8 16.83-4.28 11.46 2.63 23.47 11.3 28.95 5.72 3.62 13.76 4.47 19.56 2.08 4.43-1.82 7.32-5.26 8.39-9.93 1.66-7.27-2.65-14.75-9.42-16.33-3.73-.87-7.23-.34-9.37 1.43-1.14.94-2.47 2.71-2.33 5.76.08 1.88 1.17 3.76 2.84 4.88 1.53 1.03 3.33 1.31 4.93.74 1-.36 1.53-1.46 1.18-2.46-.36-1-1.46-1.53-2.46-1.17-.63.22-1.26-.14-1.5-.31-.67-.45-1.12-1.18-1.15-1.86-.05-1.2.26-2.05.94-2.62 1.17-.98 3.54-1.24 6.03-.65 5.23 1.23 7.61 7.05 6.54 11.72-.79 3.45-2.84 5.88-6.1 7.23-4.71 1.95-11.31 1.22-16.03-1.77-7.39-4.67-13.32-14.8-9.76-24.35 3.38-9.07 13.25-13.4 20.68-14.35 10.89-1.39 19.56.51 26.13 4.12 1.7 1.5 3.63 2.82 5.74 4 3.75 3.28 6.46 7.18 8.12 11.11 5.17 12.2 2.01 28.92-6.6 40.73-.16.06-.33.13-.48.23-.52.36-.8.91-.83 1.48-2.12 2.61-4.51 4.95-7.16 6.87-11.45 8.32-30.33 10.26-42.09 4.31-8.24-4.17-15.1-11.75-19.49-21.49 2.12-.66 4.04-1.57 5.69-2.73 4.11-2.88 6.67-7.46 6.69-11.96 0-1.07-.86-1.93-1.92-1.93h-.01c-1.06 0-1.92.86-1.92 1.91-.01 3.28-1.95 6.65-5.05 8.83-2.73 1.92-6.43 3.02-10.68 3.19-9.13.36-17.59-3.49-26.66-12.09-.77-.73-1.99-.7-2.72.07-.73.78-.7 1.99.08 2.73 9.33 8.85 18.57 13.16 28.2 13.16.42 0 .83 0 1.25-.02 1.05-.04 2.07-.14 3.07-.28 1.39 6.35-5.04 12.52-9.34 15.3-7.08 4.59-16.88 5.36-25.58 2.01-8.04-3.09-15-10.23-19.64-20.1 2.92-3.3 4.14-7.71 3.68-11.54-.59-4.93-4.14-10.27-12.36-10.45-1.01-.02-4.53.13-7.26 3.06-2.25 2.41-3.18 5.85-2.77 10.24.1 1.06 1.05 1.84 2.09 1.74 1.06-.1 1.84-1.04 1.74-2.09-.3-3.25.29-5.69 1.75-7.26 1.31-1.4 3.13-1.86 4.36-1.84 7.05.16 8.39 4.99 8.63 7.06.55 4.58-2.3 10.21-8.01 11.72-7.42 1.97-19.23-.66-24.3-7.58-1.2-1.62-1-2.92-.69-4.88.25-1.59.53-3.39-.02-5.49-1.33-5.15-5.98-4.9-8.76-4.74-.9.05-1.74.04-2.71.1-.68.04-1.46.09-1.88-.04-3.83-1.14-4.78-4.84-5.81-10.36-.26-1.45-.51-2.82-.87-4.11-1.62-5.86-5.58-10.12-11.77-12.67z" mask="url(#c)"/><path fill="url(#d)" fill-opacity=".48" stroke="url(#e)" stroke-width="2.97" d="M272.43 62.01c-2.67 6.88-7.16 13.2-13.16 17.99v.01c-11.47 9.18-27.53 12.57-42.97 9.15-.1-.02-.2-.04-.29-.07.56 1.03 1.06 2.07 1.51 3.11 5.86 13.82 2.71 31.81-6.43 44.94 2.99 3.67 6.81 6.65 10.89 8.1 4.35 1.54 9.02 1.36 13.52-1.61h-.01c1.17-.78 2.34-1.65 3.29-2.43.7-.57 1.21-1.05 1.54-1.39.04-.89.43-1.76 1.15-2.4l.14-.11a3.41 3.41 0 0 1 4.56.3l.12.13c.66.76 1.3 1.51 1.92 2.24 3.42 4.01 6.18 7.22 10.86 9.26l.46.2c4.89 2 10.71 2.6 15.94 1.64h-.01c8.14-1.48 12.54-5.31 19.01-11 .81-.7 1.64-1.44 2.51-2.18.46-.4.93-.83 1.42-1.3-3.62 1.66-7.4 3.02-11.34 3.59-2 .3-3.99.44-5.96.44-8.7 0-17-2.79-23.06-7.97l-.58-.51a3.411 3.411 0 0 1 4.44-5.18l.14.12c5.84 5.27 14.81 7.71 24.04 6.36 5.91-.86 11.82-4.06 17.82-7.34 7.65-4.18 15.96-8.74 25.11-8.26 1.48 0 3 .13 4.57.44.52.1.98.31 1.37.59.95.28 1.92.61 2.93 1.04 3.96 1.68 7.53 4.02 10.87 6.2 6.34 4.15 11.87 7.7 18.99 7.3 3.88-.22 6.63-1.48 8.84-3.56 2.27-2.13 4.06-5.19 5.84-9.15.75-1.67 1.86-4.14 3.49-6.44.88-1.22 1.92-2.43 3.18-3.46-.46-.01-.94-.01-1.46.01-.87.02-1.69.33-2.96.84-.51.21-1.08.44-1.66.64-1.36.46-2.57 1-3.8 1.55-3.17 1.41-6.45 2.87-11.49 2.48-2.82-.22-6.06-.55-9.03-2.05-5.14-2.58-8.43-6.85-11.26-10.96l-1.19-1.75c-2.51-3.71-4.72-6.93-7.8-9.2-7.11-5.24-17.3-5.54-24.54-.89.15 2.03.1 4.09-.21 6.13-.93 6.14-4.16 11.89-8.93 15.88l-.46.38c-4.57 3.64-11.4 5.52-17.97 5.52-3.87 0-7.76-.65-11.12-2.07-6.17-2.6-10.03-7.52-10.67-13.86-.86-8.56 4.99-14.36 10.85-16.33l.57-.18.65-.17c6.74-1.68 13.14 1.26 16.34 7.55a3.41 3.41 0 0 1-1.51 4.58c-1.67.86-3.73.18-4.58-1.5-1.1-2.18-2.61-3.33-4.16-3.87-1.48-.51-3.09-.49-4.54-.12l-.29.08c-3.59 1.05-7.04 4.43-6.55 9.28.38 3.79 2.49 6.56 6.54 8.26 3.31 1.39 7.55 1.83 11.68 1.36 4-.46 7.72-1.76 10.26-3.68l.25-.19c3.56-2.84 6.03-7.02 6.82-11.5l.07-.44c.75-5.06-.44-10.42-2.8-15.3-2.35-4.87-5.8-9.15-9.4-12.03-5.41-4.32-13.26-6.89-22.31-7.24Z"/></g><defs><linearGradient id="a" x1="269.92" x2="0" y1="75.69" y2="75.69" gradientUnits="userSpaceOnUse"><stop stop-color="#fcf0d6"/><stop offset="1" stop-color="#ffc446"/></linearGradient><linearGradient id="b" x1="269.92" x2="0" y1="75.69" y2="75.69" gradientUnits="userSpaceOnUse"><stop stop-color="#fcf0d6"/><stop offset="1" stop-color="#ffc446"/></linearGradient><linearGradient id="d" x1="393.39" x2="209.24" y1="106.75" y2="106.75" gradientUnits="userSpaceOnUse"><stop stop-color="#fcf0d6"/><stop offset="1" stop-color="#ffc446"/></linearGradient><linearGradient id="e" x1="393.39" x2="209.24" y1="106.75" y2="106.75" gradientUnits="userSpaceOnUse"><stop stop-color="#fcf0d6"/><stop offset="1" stop-color="#ffc446"/></linearGradient></defs></svg>
